!!!!SEGMENT: pl-kk--kk-i-382--095-003_richling--msza-na-3-glosy-offertorium.krn
!!!cenid: 18xx:1615
!!!COM: Richling
!!!COM-rismid: pe50045950
!!!CDT:
!!!CNT:
!!!OPR: Msza na 3 głosy
!!!OTL: Offertorium
!!!OMV: 003
!!!PDT:
!!!AGN: Sacred; Mass
!!!SMS-siglum: PL-Kk
!!!SMS-shelfmark: Kk.I.382
!!!SMS-shelfwork: 095-003 M
!!!SMS-variant:
!!!SMS-altvar:
!!!NIFC-rismid: 1001142973
!!!URL-scan: http://repozytorium.nifc.pl/skany/pl-kk-nut--i-382
!!!ONB-nifc: S/T1 0065-0066, A/B1 0209, B2 0282. Części Mszy: 1. Requiem, 2. Dies irae, 3. Offertorium, 4. Sanctus, 5. Benedictus, 6. Agnus, 7. Graduale, 8. Offertorium
**kern	**text	**dynam	**kern	**text	**kern	**text	**dynam
*part3	*part3	*part3	*part2	*part2	*part1	*part1	*part1
*staff3	*staff3	*	*staff2	*staff2	*staff1	*staff1	*
*Ibass	*	*	*Ialto	*	*Itenor	*	*
*I"Basso II	*	*	*I"Alto vel Basso I	*	*I"Soprano vel Tenore I	*	*
*I'B II	*	*	*I'A/B I	*	*I'S/T I	*	*
*clefF4	*	*	*clefF4	*	*clefG2	*	*
*	*	*	*	*	*ITrd7c12	*	*
*k[b-]	*	*	*k[b-]	*	*k[b-]	*	*
*d:	*	*	*d:	*	*d:	*	*
*M4/4	*	*	*M4/4	*	*M4/4	*	*
*met(c)	*	*	*met(c)	*	*met(c)	*	*
=1	=1	=1	=1	=1	=1	=1	=1
*all\right	*	*	*all\right	*	*all\right	*	*
!LO:TX:a:t=Andante	!	!	!LO:TX:a:t=Offertorium	!	!LO:TX:a:t=Offertorium	!	!
!LO:TX:a:t=Offertorium	!	!	!LO:TX:a:t=Andante	!	!LO:TX:a:t=Andante	!	!
!	!	!	!LO:TX:a:t=1	!	!LO:TX:a:t=2	!	!
4D\	Do-	.	1r	.	1r	.	.
8D\	-mi-	.	.	.	.	.	.
8D\	-ne	.	.	.	.	.	.
4F\	Je-	.	.	.	.	.	.
4G\	-su	.	.	.	.	.	.
=2	=2	=2	=2	=2	=2	=2	=2
!	!	!	!	!	!LO:TX:t=P:problem:Zanotowany ołówkiem 2. t. B I	!	!
4F\	Do-	.	4A\	Do-	1r	.	.
8F\	-mi-	.	8A\	-mi-	.	.	.
8E\	-ne	.	8G\	-ne	.	.	.
!LO:TX:t=P:problem:"Kretchmer" ołówkiem	!	!	!	!	!	!	!
4D\	Je-	.	4F\	Je-	.	.	.
4D\	-su	.	4G\	-su,	.	.	.
=3	=3	=3	=3	=3	=3	=3	=3
!LO:PB:g=original	!	!	!	!	!	!	!
8D\	Chris-	.	(4.A\	Chris-	4f\	Do-	.
8D\	-te	.	.	.	.	.	.
4r	.	.	.	.	8f\	-mi-	.
.	.	.	8G\)	.	8e\	-ne	.
2r	.	.	4B-\	-te	4d\	Je-	.
!	!	!	!LO:TX:t=P:problem:"Kretchmer" ołówkiem	!	!	!	!
.	.	.	4r	.	4c\	-su	.
=4	=4	=4	=4	=4	=4	=4	=4
!	!	!	!LO:LB:g=original	!	!	!	!
4G\	Do-	.	4B-\	Do-	[1B-/	Chris-	.
8G\	-mi-	.	8B-\	-mi-	.	.	.
8F\	-ne	.	8A\	-ne	.	.	.
4E\	Je-	.	4G\	Je-	.	.	.
4D\	-su	.	4F\	-su,	.	.	.
=5	=5	=5	=5	=5	=5	=5	=5
(2.C#X/	Chris-	.	(4F\	Chris-	(2B-\]	.	.
.	.	.	2E\	.	.	.	.
.	.	.	.	.	(2A/)	.	.
4D\	.	.	4F\)	.	.	.	.
=6	=6	=6	=6	=6	=6	=6	=6
2F\)	.	.	2.A\	-te	2d\)	.	.
4E\	-te	.	.	.	4c#X\	-te	.
4r	.	.	4r	.	4r	.	.
=7	=7	=7	=7	=7	=7	=7	=7
!LO:TX:a:t=Solo	!	!	!LO:TX:a:t=1	!	!LO:TX:a:t=2	!	!
2AA/	Rex	.	1r	.	1r	.	.
(4Cn/	Rex	.	.	.	.	.	.
4D\)	.	.	.	.	.	.	.
=8	=8	=8	=8	=8	=8	=8	=8
!LO:LB:g=original	!	!	!	!	!	!	!
4E\	rex	.	4cn\	Rex,	1r	.	.
(8E\L	glo-	.	(8c\L	glo-	.	.	.
8D\J)	.	.	8Bn\J	.	.	.	.
8C\	.	.	8A\)	.	.	.	.
8C/	-ri-	.	8A\	-ri-	.	.	.
4BBn/	-ae	.	4G\	-ae	.	.	.
=9	=9	=9	=9	=9	=9	=9	=9
!	!	!	!LO:LB:g=original	!	!LO:LB:g=original	!	!
4AA/	Li-	.	4e\	Li-	4cn\	Li-	.
8AA/	-be-	.	8e\	-be-	8c\	-be-	.
8BBn/	-ra	.	8e\	-ra	8B\	-ra	.
8C/	a-	.	8e\	a-	8A/	a-	.
8C/	-ni-	.	8e\	-ni-	8A/	-ni-	.
4C#X/	-mas	.	4A\	-mas	4A/	-mas	.
=10	=10	=10	=10	=10	=10	=10	=10
8.D\	om-	.	8.A\	om-	8.f\	om-	.
16D\	-ni-	.	16A\	-ni-	16f\	-ni-	.
8G\	-um	.	8B-\	-um	8f\	-um	.
8G\	fi-	.	8B-\	fi-	8e\	fi-	.
8F\	-de-	.	8A\	-de-	8d\	-de-	.
16F\	-li-	.	16A\	-li-	16d\	-li-	.
16F\	-um	.	16A\	-um	16d\	-um	.
!LO:LB:g=original	!	!	!	!	!	!	!
8E\	de-	.	8G#X\	de-	8d\	de-	.
8E\	-func-	.	8G#\	-func-	8d\	-func-	.
=11	=11	=11	=11	=11	=11	=11	=11
4E\	-to-	.	4G#X\	-to-	4c\	-to-	.
8E-X\	-rum	.	8A\	-rum	8c\	-rum	.
8E-\	de	.	8Gn\	de	8c\	de-	.
!	!	!	!	!	!LO:LB:g=original	!	!
4D\	poe-	.	4F#X\	poe-	4c\	-poe-	.
8D\	-nis	.	8F#\	-nis	8B-\	-nis	.
8D\	in	.	8F#\	in	8B-\	in	.
=12	=12	=12	=12	=12	=12	=12	=12
!	!	!	!LO:LB:g=original	!	!	!	!
(4E-X\	fer-	.	(2.G\	fer-	(2B-\	fer-	.
8D\L	.	.	.	.	.	.	.
8C\J	.	.	.	.	.	.	.
2D\)	.	.	.	.	2A/)	.	.
.	.	.	4F#X\)	.	.	.	.
=13	=13	=13	=13	=13	=13	=13	=13
2GG/	-ni	.	2G\	-ni	2B-\	-ni	.
2r	.	.	2r	.	2r	.	.
=14	=14	=14	=14	=14	=14	=14	=14
2G\	et	.	2B-\	et	4r	.	.
!	!	!	!	!	!	!	!LO:DY:a:rj
.	.	.	.	.	4d\	et	pp
4G\	de	.	4B-\	de	4d\	de	.
4G\	pro-	.	4B-\	pro-	4d\	pro-	.
=15	=15	=15	=15	=15	=15	=15	=15
!LO:LB:g=original	!	!	!	!	!	!	!
2D\	-fun-	.	2A\	-fun-	2f\	-fun-	.
2C/	-do	.	2A\	-do	2e\	-do	.
=16	=16	=16	=16	=16	=16	=16	=16
1BB-/	la-	.	(4A\	la-	1d/	la-	.
.	.	.	8G\L	.	.	.	.
.	.	.	8F\J	.	.	.	.
.	.	.	4E\	.	.	.	.
.	.	.	4D\)	.	.	.	.
=17	=17	=17	=17	=17	=17	=17	=17
2AA/	-cu	.	2E\	-cu	2c#X\	-cu	.
!LO:TX:a:rj:t=solo	!	!	!	!	!	!	!
4Cn/	Li-	.	2r	.	2r	.	.
8D\	-be-	.	.	.	.	.	.
8E\	-ra	.	.	.	.	.	.
=18	=18	=18	=18	=18	=18	=18	=18
4F\	li-	.	4A\	Li-	4cn\	Li-	.
8F\	-be-	.	8A\	-be-	8c\	-be-	.
8F\	-ra	.	8A\	-ra	8c\	-ra	.
!	!	!	!LO:LB:g=original	!	!LO:LB:g=original	!	!
4F\	e-	.	4A\	e-	4c\	e-	.
8F\	-as	.	8A\	-as	8c\	-as	.
8F\	de	.	8A\	de	8c\	de	.
=19	=19	=19	=19	=19	=19	=19	=19
4C/	o-	.	4G\	o-	4e-X\	o-	.
8C/	-re	.	8G\	-re	8e-\	-re	.
8C/	le-	.	8G\	le-	8e-\	le-	.
!LO:LB:g=original	!	!	!	!	!	!	!
4BB-/	-o-	.	4G\	-o-	4d\	-o-	.
4BB-/	-nis	.	8F\L	-nis	4d\	-nis	.
.	.	.	8G\J	.	.	.	.
=20	=20	=20	=20	=20	=20	=20	=20
8AA/	ne	.	8A\	ne	8c#X\	ne	.
8AA/	ab-	.	8A\	ab-	8c#\	ab-	.
8AA/	-sor-	.	8G\	-sor-	8c#\	-sor-	.
16AA/	-be-	.	16G\	-be-	16c#\	-be-	.
16AA/	-at	.	16G\	-at	16c#\	-at	.
8BB-/	e-	.	8F\	e-	8d\	e-	.
8BB-/	-as	.	8F\	-as	8d\	-as	.
8GG/	Tar-	.	8G\	tar-	8en\	tar-	.
16GG/	-ta-	.	16G\	-ta-	16e\	-ta-	.
16GG/	-rus	.	16G\	-rus	16e\	-rus	.
=21	=21	=21	=21	=21	=21	=21	=21
!	!	!	!LO:LB:g=original	!	!LO:LB:g=original	!	!
4AA/	ne	.	4F\	ne	4d\	ne	.
8AA/	ca-	.	8F\	ca-	8d\	ca-	.
8AA/	-dant	.	8F\	-dant	8d\	-dant	.
4AA/	in	.	4F\	in	4d\	in	.
8AA/	ob-	.	8F\	ob-	8d\	ob-	.
8AA/	-scu-	.	8F\	-scu-	8d\	-scu-	.
=22	=22	=22	=22	=22	=22	=22	=22
2AA/	-rum	.	2E\	-rum	2c#X\	-rum	.
2r	.	.	2r	.	2r	.	.
=23	=23	=23	=23	=23	=23	=23	=23
!LO:TX:a:t=Solo	!	!LO:DY:rj:a	!LO:TX:a:t=1	!	!LO:TX:a:t=1	!	!
2D\	sed	f	1r	.	1r	.	.
8.F\	sig-	.	.	.	.	.	.
16F\	-ni-	.	.	.	.	.	.
4G\	-fer	.	.	.	.	.	.
=24	=24	=24	=24	=24	=24	=24	=24
(4A\	sed	.	(4.F\	sed	2A/	sed	.
8F\L	.	.	.	.	.	.	.
8E\J)	.	.	8G\)	.	.	.	.
8.D/	si-	.	8.F\	sig-	8.A/	si-	.
16D/	-gni-	.	16F\	-ni-	16A/	-gni-	.
4C/	-fer	.	4E\	-fer	4e\	-fer	.
=25	=25	=25	=25	=25	=25	=25	=25
4.BB-/	Sanc-	.	4.D\	Sanc-	4.f\	San-	.
8BB-/	-tus	.	8E\	-tus	8e\	-ctus	.
8.BB-/	Mi-	.	8.F\	Mi-	8.d\	Mi-	.
16BB-/	-cha-	.	16F\	-cha-	16d\	-cha-	.
4BB-/	-el	.	4F\	-el	4G#X/	-el	.
=26	=26	=26	=26	=26	=26	=26	=26
!	!	!	!LO:PB:g=original	!	!LO:LB:g=original	!	!
4.AA/	re-	.	4.D\	re-	4.A/	re-	.
8AA/	-pre-	.	8E\	-pre-	8A/	-pre-	.
4AA/	-sen-	.	4F\	-sen-	4A/	-sen-	.
4AA/	-tet	.	4A\	-tet	4A/	-tet	.
=27	=27	=27	=27	=27	=27	=27	=27
!LO:LB:g=original	!	!	!	!	!	!	!
4GG#X/	e-	.	4Bn\	e-	4f\	e-	.
8GG#/	-as	.	8B\	-as	8f\	-as	.
8GG#/	in	.	8B\	in	8f\	in	.
4GG#/	lu-	.	4B\	lu-	4e\	lu-	.
4GG#/	-cem	.	4B\	-cem	4d\	-cem	.
=28	=28	=28	=28	=28	=28	=28	=28
(4.AA/	sanc-	.	(4Bn\	sanc-	1c/	sanc-	.
.	.	.	8A\L	.	.	.	.
8BBn/	.	.	8G#X\J	.	.	.	.
4C/	.	.	2A\)	.	.	.	.
4D\)	.	.	.	.	.	.	.
=29	=29	=29	=29	=29	=29	=29	=29
2E\	-tam	.	2G#X\	-tam	2B\	-tam	.
4r	.	.	2r	.	2r	.	.
!LO:TX:t=P:problem:"Solo" ołówkiem	!	!	!	!	!	!	!
4AA/	Quam	.	.	.	.	.	.
=30	=30	=30	=30	=30	=30	=30	=30
!	!	!	!LO:TX:a:t=1	!	!LO:TX:a:t=1	!	!
8.C/L	o-	.	1r	.	1r	.	.
16D/Jk	.	.	.	.	.	.	.
4E\	-lim	.	.	.	.	.	.
8F\	A-	.	.	.	.	.	.
8G\	-bra-	.	.	.	.	.	.
8A\	-hae	.	.	.	.	.	.
8A\	et	.	.	.	.	.	.
=31	=31	=31	=31	=31	=31	=31	=31
!LO:LB:g=original	!	!	!	!	!	!	!
4B-X\	se-	.	2r	.	4r	.	.
8B-\	-mi-	.	.	.	4d\	Quam	.
8B-\	-ni	.	.	.	.	.	.
(4A\	e-	.	4r	.	4c#X\	o-	.
4G\)	.	.	4A\	Quam	4c#\	-lim	.
=32	=32	=32	=32	=32	=32	=32	=32
!	!	!	!LO:LB:g=original	!	!LO:LB:g=original	!	!
4F\	-jus	.	4A\	o-	8.d\	A-	.
.	.	.	.	.	16d\	-bra-	.
4F\	et	.	4G\	-lim	2B-\	-che	.
4E^\	se-	.	8.G\	A-	.	.	.
.	.	.	16G\	-bra-	.	.	.
8E\	-mi-	.	8G\	-he	4cn\	et	.
8E\	-ni	.	8G\	et	.	.	.
=33	=33	=33	=33	=33	=33	=33	=33
(4E\	e-	.	4F\	se-	4A/	se-	.
4D\)	.	.	8F\	-mi-	8B-/	-mi-	.
.	.	.	8F\	-ni	8B-/	-ni	.
4.C#X\	-jus	.	(4F\	e-	2A/	e-	.
.	.	.	(4E\)	.	.	.	.
8C#/	et	.	.	.	.	.	.
=34	=34	=34	=34	=34	=34	=34	=34
4D\	se-	.	2F\)	.	4A/	-jus	.
8D\	-mi-	.	.	.	4d\	et	.
8D\	-ni	.	.	.	.	.	.
(4D\	e-	.	4G\	-jus	4e\	se-	.
4Cn/)	.	.	4A\	et	8e\	-mi-	.
.	.	.	.	.	8e\	-ni	.
=35	=35	=35	=35	=35	=35	=35	=35
!LO:LB:g=original	!	!	!	!	!	!	!
2.BB-/	-jus	.	4A\	se-	(2d\	e-	.
.	.	.	8B-\	-mi-	.	.	.
.	.	.	8A\	-ni	.	.	.
.	.	.	4G\	e-	4c#X\)	.	.
4AA/	et	.	8F\	-jus	8d\	-jus	.
.	.	.	8F\	et	8d\	et	.
=36	=36	=36	=36	=36	=36	=36	=36
!	!	!	!LO:LB:g=original	!	!LO:LB:g=original	!	!
4GG/	se-	.	4E\	se-	4d\	se-	.
8GG/	-mi-	.	8E\	-mi-	8d\	-mi-	.
8GG/	-ni	.	8E\	-ni	8d\	-ni	.
2AA/	e-	.	2E\	e-	(4d\	e-	.
.	.	.	.	.	4c#X\)	.	.
=37	=37	=37	=37	=37	=37	=37	=37
2D\	-jus	.	2F\	-jus	2d\	-jus	.
4r	.	.	2A\	et	2cn\	et	.
4D\	et	.	.	.	.	.	.
=38	=38	=38	=38	=38	=38	=38	=38
4D\	se-	.	4A\	se-	4B-\	se-	.
8D\	-mi-	.	8A\	-mi-	8B-\	-mi-	.
8D\	-ni	.	8A\	-ni	8B-\	-ni	.
2D\	e-	.	2G\	e-	2B-\	e-	.
=39	=39	=39	=39	=39	=39	=39	=39
1D\;	-jus	.	1F#X\;	-jus	1A/;	-jus	.
==	==	==	==	==	==	==	==
*-	*-	*-	*-	*-	*-	*-	*-
!!!system-decoration: [(s1,s2,s3)]
!!!EED: Andrzej Borzym
!!!EST: 2021-03-26
!!!ENC:Berenika Jozajtis
!!!END:2021-03-07
